X:1
T:Title
%%score { ( 1 3 4 ) | ( 2 5 ) }
L:1/8
Q:1/4=100
M:4/4
K:Ab
V:1 treble nm="Grand Piano"
V:3 treble 
V:4 treble 
V:2 bass 
V:5 bass 
V:1
 [Ec]>[Fd] [Ec]>[DB] [CA]2 [Ec]2 | B>B A>F [CE]4 | [Ec]>[Fd] [Ec]>[DB] [CA]2 [Ee]2 | B>B B>c B4 | %4
w: Chas.~H.~Gabriel * * * * *||||
 c>c c>d e2 c2 | [FB]>[FB] [FA]>[FB] [=Ec]4 | [FB]>[FB] [FA]>F E2 e2 | c>c B>B [CA]4 | %8
w: ||||
 c6[K:bass][K:treble] z2 | [CE-]2 E2 z4[K:treble] | c2 e2 z4 | G2 G>G [Ge]2 e>d | %12
w: ||||
 c->[E,Ec-] [A,Cc-]>[B,Dc-] [C-c]>[C-c] [CB]>A | [CE-]2 E2 z4[K:treble] | c2 e2 z4 | [CEA]6 z2 |] %16
w: ||||
V:2
 [A,,A,]>[A,,A,] [A,,A,]>[A,,E,] [A,,E,]2 [A,,A,]2 | [D,F,D]>[D,F,D] [D,F,D]>[D,A,D] [A,,A,]4 | %2
 [A,,A,]>[A,,A,] [A,,A,]>[A,,E,] [A,,E,]2 [C,A,]2 | [E,G,E]>[E,G,E] [E,G,E]>[E,A,E] [E,G,E]4 | %4
 [A,E]>[A,E] [A,E]>[A,B,E] [A,CE]2 [A,E]2 | [D,A,]>[D,A,] [D,A,]>[D,F,] [C,G,]4 | %6
 [D,F,]>[D,A,] [D,D]>[D,A,D] [C,A,]2 [A,,CE]2 | [E,A,E]>[E,A,E] [E,G,D]>[E,G,D] [A,,A,]4 | %8
 [A,,A,]>A,, A,,>A,, z z/ E/ D>C | A,,>A,, A,,>A,, A,,2 A,,>A,, | %10
 [A,EA]>[A,E] [A,CA]>[A,C] [A,CA]>[A,EA][K:bass] [G,E]>[A,E] | %11
 [E,E]2 [E,E]>[E,D] [E,B,]2[K:treble] G>F | [A,,A,]>A,, A,,>A,, z z/ E/ D>C | %13
 A,,>A,, A,,>A,, A,,2 A,,>A,, | [A,EA]>[A,E] [A,CA]>[K:bass][A,C] [E,B,]>[E,B,] E,>E, | A,,6 z2 |] %16
V:3
 x8 | x8 | x8 | x8 | x8 | x8 | x8 | x8 | z4[K:bass][K:treble] E2 z2 | %9
 A,>E, [A,C]>[B,D] [CE]2[K:treble] [CEA]>[DEB] | z z/ A/ z z/ A/ e>c [Bd]>[Ac] | B4 z4 | %12
 E2 z2 E2 z2 | A,>E, [A,C]>[B,D] [CE]2[K:treble] [CEA]>[DEB] | %14
 z z/ A/ z z/ A/ [Ge]>[Gd] [DGB]>[Ec] | x8 |] %16
V:4
 x8 | x8 | x8 | x8 | x8 | x8 | x8 | x8 | E>[K:bass][E,E] [A,C]>[K:treble][B,D] C->[C-c] [CB]>A | %9
 x6[K:treble] x2 | x8 | x8 | x8 | x6[K:treble] x2 | x8 | x8 |] %16
V:5
 x8 | x8 | x8 | x8 | x8 | x8 | x8 | x8 | z4 A,,4 | x8 | x6[K:bass] x2 | x6[K:treble] x2 | z4 A,,4 | %13
 x8 | x7/2[K:bass] x9/2 | x8 |] %16

